symbols/web/switch_access_shortcut/materialsymbolsrounded/switch_access_shortcut_wght300grad200_24px.svg

<svg xmlns="http://www.w3.org/2000/svg" height="24" width="24"><path d="m8 11.125-.975-2.15L4.875 8l2.15-.975L8 4.875l.975 2.15 2.15.975-2.15.975Zm0 10-.975-2.15L4.875 18l2.15-.975.975-2.15.975 2.15 2.15.975-2.15.975ZM5 15.1l-.65-1.45L2.9 13l1.45-.65L5 10.9l.65 1.45L7.1 13l-1.45.65Zm12.525 6.2q-2.5-1.55-4.05-4.025-1.55-2.475-1.55-5.275 0-2.15.913-4.188.912-2.037 2.462-3.737h-2.55q-.425 0-.75-.313-.325-.312-.325-.762T12 2.237q.325-.312.75-.312h5.125q.5 0 .85.35t.35.85V8.25q0 .425-.313.75-.312.325-.762.325T17.238 9q-.313-.325-.313-.75V5.5Q15.6 6.95 14.838 8.625 14.075 10.3 14.075 12q0 2.325 1.263 4.312Q16.6 18.3 18.6 19.5q.225.125.35.363.125.237.125.437.025.8-.45 1.088-.475.287-1.1-.088Z"/></svg>

<svg xmlns="http://www.w3.org/2000/svg" height="24" width="24"><path d="M8 11.125 7.025 8.975 4.875 8 7.025 7.025 8 4.875 8.975 7.025 11.125 8 8.975 8.975ZM8 21.125 7.025 18.975 4.875 18 7.025 17.025 8 14.875 8.975 17.025 11.125 18 8.975 18.975ZM5 15.1 4.35 13.65 2.9 13 4.35 12.35 5 10.9 5.65 12.35 7.1 13 5.65 13.65ZM17.525 21.3Q15.025 19.75 13.475 17.275Q11.925 14.8 11.925 12Q11.925 9.85 12.838 7.812Q13.75 5.775 15.3 4.075H12.75Q12.325 4.075 12 3.762Q11.675 3.45 11.675 3Q11.675 2.55 12 2.237Q12.325 1.925 12.75 1.925H17.875Q18.375 1.925 18.725 2.275Q19.075 2.625 19.075 3.125V8.25Q19.075 8.675 18.762 9Q18.45 9.325 18 9.325Q17.55 9.325 17.238 9Q16.925 8.675 16.925 8.25V5.5Q15.6 6.95 14.838 8.625Q14.075 10.3 14.075 12Q14.075 14.325 15.338 16.312Q16.6 18.3 18.6 19.5Q18.825 19.625 18.95 19.863Q19.075 20.1 19.075 20.3Q19.1 21.1 18.625 21.388Q18.15 21.675 17.525 21.3Z"/></svg>
